scenes/seasonofgiving/img/icons/show-all.svg

<svg xmlns="http://www.w3.org/2000/svg" width="41.448" height="41.448" viewBox="0 0 41.448 41.448"><path fill="#fff" d="M8.976 17.952C4.026 17.952 0 13.925 0 8.976S4.027 0 8.976 0s8.976 4.027 8.976 8.976-4.027 8.976-8.976 8.976zm0-15.012c-3.328 0-6.036 2.708-6.036 6.036 0 3.328 2.708 6.035 6.036 6.035 3.328 0 6.035-2.707 6.035-6.034 0-3.328-2.706-6.036-6.034-6.036z" opacity=".5"/><path fill="#fff" d="M32.473 17.952c-4.95 0-8.976-4.026-8.976-8.976S27.523 0 32.473 0s8.976 4.027 8.976 8.976-4.028 8.976-8.977 8.976zm0-15.012c-3.328 0-6.036 2.708-6.036 6.036 0 3.328 2.708 6.035 6.036 6.035s6.036-2.707 6.036-6.034c0-3.328-2.71-6.036-6.037-6.036z" opacity=".5"/><path fill="#fff" d="M8.976 41.448C4.026 41.448 0 37.422 0 32.473s4.027-8.976 8.976-8.976 8.976 4.026 8.976 8.976-4.027 8.975-8.976 8.975zm0-15.01c-3.328 0-6.036 2.707-6.036 6.035s2.708 6.036 6.036 6.036c3.328 0 6.035-2.71 6.035-6.037s-2.706-6.036-6.034-6.036z" opacity=".5"/><path fill="#fff" d="M32.473 41.448c-4.95 0-8.976-4.026-8.976-8.976s4.026-8.976 8.976-8.976 8.976 4.026 8.976 8.976-4.028 8.976-8.977 8.976zm0-15.01c-3.328 0-6.036 2.707-6.036 6.035s2.708 6.036 6.036 6.036 6.036-2.71 6.036-6.037-2.71-6.036-6.037-6.036z" opacity=".5"/></svg>

<?xml version="1.0" encoding="utf-8"?>
<!-- Generator: Adobe Illustrator 21.0.0, SVG Export Plug-In . SVG Version: 6.00 Build 0)  -->
<svg version="1.1" id="Layer_1" xmlns="http://www.w3.org/2000/svg" xmlns:xlink="http://www.w3.org/1999/xlink" x="0px" y="0px"
	 viewBox="0 0 41.4 41.4" style="enable-background:new 0 0 41.4 41.4;" xml:space="preserve">
<style type="text/css">
	.st0{fill:#FFFFFF;enable-background:new    ;}
</style>
<path class="st0" d="M9,18c-4.9,0-9-4-9-9s4-9,9-9s9,4,9,9S13.9,18,9,18z M9,2.9c-3.3,0-6,2.7-6,6s2.7,6,6,6s6-2.7,6-6
	C15,5.6,12.3,2.9,9,2.9L9,2.9z"/>
<path class="st0" d="M32.5,18c-5,0-9-4-9-9s4-9,9-9s9,4,9,9S37.4,18,32.5,18L32.5,18z M32.5,2.9c-3.3,0-6,2.7-6,6s2.7,6,6,6
	s6-2.7,6-6C38.5,5.6,35.8,2.9,32.5,2.9L32.5,2.9z"/>
<path class="st0" d="M9,41.4c-4.9,0-9-4-9-9s4-9,9-9s9,4,9,9S13.9,41.4,9,41.4z M9,26.4c-3.3,0-6,2.7-6,6s2.7,6,6,6s6-2.7,6-6
	S12.3,26.4,9,26.4L9,26.4z"/>
<path class="st0" d="M32.5,41.4c-5,0-9-4-9-9s4-9,9-9s9,4,9,9S37.4,41.4,32.5,41.4L32.5,41.4z M32.5,26.4c-3.3,0-6,2.7-6,6
	s2.7,6,6,6s6-2.7,6-6S35.8,26.4,32.5,26.4L32.5,26.4z"/>
</svg>
